X:1
T:Sl\"angpolska efter Juringius  [Bm]
T:Polon\"as ur Anders Larssons notbok, V\"asterg\"otland
T:Polon\"as ur Sexdregasamlingen
T:Sl\"angpolska fr\aan Kalmar
%D: 1693
O:Sweden 1693
A:Sm\aaland
R:sl\"angpolska
S:handout from Bruce Sagan for "scanfolk" zoom session 2020-08-11
S:http://archive.folx.org/tune/polska/slangpolska-efter-juringius-87
N: Note at bottom: SEL01680-2st-v1 Utskrivet av Stefan Lindén 140530
K:Bm
M:3/4
L:1/8
% = = = = = = = = = =
V:1 staves=2
"^A"|:\
"Bm"f2 Bf Bf | "Em"g>f ef ga |\
"A"e2 Ae Ae | "D"f>e de fg |\
"Bm"f2 ed "A"c>B |1 (A/B/)c/A/ "Bm"B4 :|2 (A/B/)c/A/ "Bm"B3 \
"^B"|: A/B/ |\
"F#m"c2 Fc Fc |
"Bm"d>c Bc de |\
"F#m"c2 Fc Fc | "Bm"d>c Bc d(c/d/) |\
"A"e2 Ae Ae | "D"f>e de fg |\
"Bm"f2 ed "A"c>B |1 (A/B/)c/A/ "Bm"B3 :|2 (A/B/)c/A/ "Bm"B4 |]
% = = = = = = = = = =
V:2
|:\
"Bm"d2 DD DD | "Em"E>B GB eB |\
"A"c2 CC CC | "D"D>B "F#m7"FB "Bm"dB |\
"F#m7"d2 cA E>F |1 FE "Bm"D2 B,2 :|2 FE "Bm"D3 \
|: (A/G/) |\
"A"E2 CE CE |
"Bm"B>F DF BC |\
"A"E2 CE CE | "Bm"B>F DF B(A/B/) |\
"A"c2 Ec Ec | "D"d>c "Bm"Bc de |
"F#m7"d2 cB A>G |[1 FE "Bm"D3 :| FE/C/ "Bm"D2 B,2 |]
